Numix/scalable/devices/uninterruptible-power-supply-symbolic.svg

<!-- Created with Inkscape (http://www.inkscape.org/) -->
<svg viewBox="0 0 16 16" xmlns="http://www.w3.org/2000/svg" style="enable-background:new">
 <defs>
  <filter id="filter7554" style="color-interpolation-filters:sRGB">
   <feBlend in2="BackgroundImage" mode="darken"/>
  </filter>
 </defs>
 <g transform="matrix(1 0 0 1 -605 119)" style="display:inline;filter:url(#filter7554)">
  <path transform="matrix(1 0 0 1 605 -119)" style="fill:#bebebe;fill-opacity:1;stroke:none" d="m 4 0 c 0 0 -2 0 -2 2 l 0 12 l 0 2 l 12 0 l 0 -2 l 0 -12 c 0 -2 -2 -2 -2 -2 l -8 0 z m 6 2 l -1 5 l 3 0 l -6 7 l 1 -5 l -3 0 l 6 -7 z m 1 10 c 0.554 0 1 0.449 1 1 c 0 0.551 -0.446 1 -1 1 c -0.554 0 -1 -0.449 -1 -1 c 0 -0.551 0.446 -1 1 -1 z"/>
 </g>
</svg>

<svg style="enable-background:new" xmlns="http://www.w3.org/2000/svg" viewBox="0 0 16 16">
 <g transform="matrix(1 0 0 1 -605 119)" style="display:inline">
  <path transform="matrix(1 0 0 1 605 -119)" style="fill:#bebebe;fill-opacity:1;stroke:none" d="M 4,0 C 4,0 2,0 2,2 l 0,12 0,2 12,0 0,-2 0,-12 C 14,0 12,0 12,0 L 4,0 Z M 10,2 9,7 12,7 6,14 7,9 4,9 10,2 Z m 1,10 c 0.554,0 1,0.449 1,1 0,0.551 -0.446,1 -1,1 -0.554,0 -1,-0.449 -1,-1 0,-0.551 0.446,-1 1,-1 z"/>
 </g>
</svg>
